X:12659
T:Paddy Kelly's
R:Reel
S:
H:
N:
D:Paddy Carty (Session Tape) 
Z:Adrian Scahill
M:4/4
L:1/8
K:G
dGG2 dGBd|c=FF2 cFAz|dGG2 dGcA|BdcA G2gf|\
dGG2 {dc}d2=fd|c=FF2 cFAz|dGGF DGG2|AdcA G3B||\
dgg2 a2ge|=fdcA ^FGAB|dggf g3f|defg aggf|\
dggf g2ag|fdcA =FGAB|dGG2 dGcA|BdcA G3B||
